X:114
T:My Love to-day as heretofore
T:Mo r\`un an diugh mar an d\'e thu
R:Slow Jig
S:Simon Fraser Collection
N:No.165
O:Scottish
M:6/8
L:1/8
Q:3/8=120
K:G
[D3B2]A [D3B2]d|G2D (E2 G/z/)|[G3e2]d [G3e] g2|d2A (B2d/)z/|
[G3e2]d [G3e] g2|G2D (E2 G/)z/|[D2B2] A B e2|d2 [GB] ([F2A2]G):|
|:B>AB d>BG|B>GD (E2 G/)z/|e>de g>ed|[G3/2e3/2]d/c [G2B2] d/z/|
e>de g>BA|G>ED (E2G/)z/|[D3/2B3/2]A/B [G3B]eB|[Ad]>c[GB] ([F2A2]G):|

